X: 1
T: Upper Valley Waltz    [Dm]
C: Pete Sutherland
R: waltz
N: transcribed to abc by Oatmeal88  https://thesession.org/tunes/15525
S: Email from Ishmael the Fiddler <ijs:alum.mit.edu> 2018-8-7
M: 3/4
L: 1/8
K: Dmin
|:\
"Dm"d2 Ac GF | d6 |"F" c2 Ac GF |"C" c6 || "Bb"B2 cB AG |"F" F2 G2 A2 |"Dm" A,2 D4 | D4 z2 :|
"Gm"A2 B4 | B2 GA BA | "F"G2 A4 | "Dm"A2 DE FA || "Dm" d2 ef ga |"Bb" b6 |"Dm" a2 gf ed |"F" f6 ||
"Gm"A2 B4 | B2 GA BA |"F" G2 A4 | "Dm"A2 de fg || "Dm" a2 d4 |"C" g2 c4 |"Dm" A2 d4 |"Dm" d4 z2 |]
